components/Common/Svg/svgs/desktop.svg

<svg width="40" height="40" viewBox="0 0 40 40" fill="none" xmlns="http://www.w3.org/2000/svg">
<path fill-rule="evenodd" clip-rule="evenodd" d="M34.1667 29.5C35.1792 29.5 36 28.6792 36 27.6667V7.83334C36 6.82082 35.1792 6.00001 34.1667 6.00001H5.83333C4.82081 6.00001 4 6.82082 4 7.83334V27.6667C4 28.6792 4.82081 29.5 5.83333 29.5H20H34.1667ZM21 31.5H34.1667C36.2838 31.5 38 29.7838 38 27.6667V7.83334C38 5.71625 36.2838 4.00001 34.1667 4.00001H5.83333C3.71624 4.00001 2 5.71625 2 7.83334V27.6667C2 29.7838 3.71624 31.5 5.83333 31.5H19V35.1668H14.3345C13.7822 35.1668 13.3345 35.6145 13.3345 36.1668C13.3345 36.7191 13.7822 37.1668 14.3345 37.1668H25.6678C26.2201 37.1668 26.6678 36.7191 26.6678 36.1668C26.6678 35.6145 26.2201 35.1668 25.6678 35.1668H21V31.5Z" fill="#161616"/>
</svg>

<svg width="40" height="40" viewBox="0 0 40 40" fill="none" xmlns="http://www.w3.org/2000/svg"><path fill-rule="evenodd" clip-rule="evenodd" d="M34.167 29.5c1.012 0 1.833-.82 1.833-1.833V7.833C36 6.821 35.18 6 34.167 6H5.833C4.821 6 4 6.82 4 7.833v19.834c0 1.012.82 1.833 1.833 1.833h28.334ZM21 31.5h13.167A3.833 3.833 0 0 0 38 27.667V7.833A3.833 3.833 0 0 0 34.167 4H5.833A3.833 3.833 0 0 0 2 7.833v19.834A3.833 3.833 0 0 0 5.833 31.5H19v3.667h-4.665a1 1 0 1 0 0 2h11.333a1 1 0 1 0 0-2H21V31.5Z" fill="#161616"/></svg>
